src/assets/filled/Vibe.svg

<svg width="24" height="24" viewBox="0 0 24 24"  xmlns="http://www.w3.org/2000/svg">
<path d="M12 2C6.48 2 2 6.48 2 12C2 17.52 6.48 22 12 22C17.52 22 22 17.52 22 12C22 6.48 17.52 2 12 2ZM9.04999 8.28999C9.12999 8.11999 9.31 8.00999 9.5 8.00999H14.5C14.69 8.00999 14.86 8.11999 14.95 8.28999C15.04 8.45999 15.02 8.66 14.9 8.81L12.4 12.14C12.31 12.27 12.16 12.34 12 12.34C11.84 12.34 11.69 12.27 11.6 12.14L9.09998 8.81C8.98998 8.67 8.96999 8.45999 9.04999 8.28999ZM17.61 10.44L12.61 17.44C12.47 17.64 12.24 17.75 12 17.75C11.76 17.75 11.53 17.63 11.39 17.44L6.39001 10.44C6.15001 10.1 6.23 9.63 6.56 9.39C6.9 9.15 7.36999 9.23 7.60999 9.56L12 15.71L16.39 9.56C16.63 9.22 17.1 9.14 17.44 9.39C17.77 9.63 17.85 10.1 17.61 10.44Z" />
</svg>

<?xml version="1.0" encoding="UTF-8"?>
<svg width="24" height="24" viewBox="0 0 24 24" xmlns="http://www.w3.org/2000/svg">
 <path d="m12 2c-5.52 0-10 4.48-10 10s4.48 10 10 10 10-4.48 10-10-4.48-10-10-10zm-2.95 6.29c0.08-0.17 0.26001-0.28 0.45001-0.28h5c0.19 0 0.36 0.11 0.45 0.28s0.07 0.37001-0.05 0.52001l-2.5 3.33c-0.09 0.13-0.24 0.2-0.4 0.2s-0.31-0.07-0.4-0.2l-2.5-3.33c-0.11-0.14-0.12999-0.35001-0.04999-0.52001zm8.56 2.15-5 7c-0.14 0.2-0.37 0.31-0.61 0.31s-0.47-0.12-0.61-0.31l-5-7c-0.24-0.34-0.16001-0.81 0.16999-1.05 0.34-0.24 0.80999-0.16 1.05 0.17l4.39 6.15 4.39-6.15c0.24-0.34 0.71-0.42 1.05-0.17 0.33 0.24 0.41 0.71 0.17 1.05z"/>
</svg>
